-----BEGIN PGP PUBLIC KEY BLOCK-----

mQINBGqDVL4BEACmNtI358i2URlTBV+6ByVVobQckIv740hB2Eo6uEbH4rSFoVAK
uhV7dWHRyZb2G5tfp+ldFUfGDFn8yDTyQ03ttNhJA4Kgh7n5FkJVELA8ogE2/AhM
0ooTAvOrn34U6FPmREqeGb8+JdWbZVQIzfCm5CwjxOvtSu/nq40fFfSJuHQrjedM
dlj9D1VsY16mwsO06RFYpWZIiBSC5cFfo+54stMeR5Msf0XAQBUOB26pRpNZx4vQ
BP2afhLO39aOMHjGGY4gcQGQ/WFZ2BNeLVxBezT38LhieMpFQgXVHUWYWgrbdMy0
PCHvVJTFZxHwHOy+7sq6Uz/UoRYe2TSFZXjr7EGZORmq01N6dh/ZlMrC0hiVQZwC
hQGam5qTQQeDdpV4wSwYNzTsGUbrRcSuC4JSd9d/OX4vzUIQSKM7Of1cj4rPaqew
AWLTpeaaubj7wvTP7K2HNdBlb1dRwP2Pe3YNUrlHNnobdldqLJU+kl78AzCI6cJF
7cI32rOsoMvGR9zwwiFUfnbO29H15BFj2L6Z5J6iiLrQm+oYOOvayPpCxYChYjcg
apJsfvOQwsiZI4DT+/hGy4ORBuUC7SRcV3Q6H6keVRyc9shmcDdZiwhmoxevZMUu
rjWE1V8T4TUwtkwXXhEcw/VGM2eNcReqdg+mij0icfptvPCfi22hgPpmcwARAQAB
tDxXaGlza2VybGVzcyAocmVsZWFzZSBzaWduaW5nKSA8d2hpc2tlcmxlc3NAYnJ5
YW50c2VydmVyLmNvbT6JAm0EEwEIAFcWIQR1A6rXWhgRm70mFEZLus1ab/OFZAUC
aoNUvhsUgAAAAAAEAA5tYW51MiwyLjUrMS4xMiwwLDMCGwMFCwkIBwICIgIGFQoJ
CAsCBBYCAwECHgcCF4AACgkQS7rNWm/zhWQORxAAjBQrVp3FHIvZxBmARGJ6DBtg
CzZUT+8LHbVpYelImFDxjltI2yhhvkW8U5EA9Cjz6L/ReMjc6rNmEij0aZIK/s00
MhEepd2cbngTMfgGrj5bOQms19KKcv4fFI7C85deqr+i0Kko3syVL2UMYVKm0VjF
eD93D7Vx0sMqzEDf7oIWK5D6ncxxi+ouldeTLbvpnHZAZOlzmZg5XouDDzD1qn9E
hIH4sX9cBhCQSPOmTVc2OWp4y+hFiTACoNiH0lG8K+kEg/Eu+2RGtXB+Xf9729OY
F75XMvpbEtdSCcv2rI0TVV9FlgHAfcOfjex09A8ECowXt9FvzORdNWpyn0CGnbk8
OBI94Wzmj1bZ7JPzAa3gC3jPeCzcVX7NyyScmDOeqZIjwpQAWL1ICLs4ly38c9TN
OUo/rSdYu7bYRHKBimo2zwUQZyIqkmXkqJ24f0ySuvtyDMyQ9jkUjZm8Jl9hAoEg
myoFp5lSPi12ojjSSnpS2pVqKiN7I9wqCHgTJidSOpy+jVTbDJeugoPXSqbMJYhN
HetmlqGJrYMoA+BIO/ESYbnumap1T8zA9q1tBO3GZmiY22dwOgRLuLb8Rdu9A19g
tbq48ke9LKrlEsTcQ2YQ+Pnk0Dh9y/Sam5k78sWj8978tyvCzFVDTjXpmE+EMuQB
DWZAB0lsTHWgL4EaH08=
=KD+Z
-----END PGP PUBLIC KEY BLOCK-----
